client/public/assets/icons/utility/block_visitor.svg

<?xml version="1.0"?><svg xmlns="http://www.w3.org/2000/svg" width="52" height="52" viewBox="0 0 52 52"><path d="m64.7 19.1v0.4-0.4z"></path><path fill="#fff" d="m22 37c0-2.7 0.9-5.8 2.3-8.2 1.7-3 3.6-4.2 5.1-6.4 2.5-3.7 3-9 1.4-13-1.6-4.1-5.4-6.5-9.8-6.4s-8 2.8-9.4 6.9c-1.6 4.5-0.9 9.9 2.7 13.3 1.5 1.4 2.9 3.6 2.1 5.7-0.7 2-3.1 2.9-4.8 3.7-3.9 1.7-8.6 4.1-9.4 8.7-0.8 3.8 1.8 7.7 5.9 7.7h17c0.8 0 1.3-1 0.8-1.6-2.5-2.9-3.9-6.6-3.9-10.4z m24.5-8.5c-4.7-4.7-12.3-4.7-17 0s-4.7 12.3 0 17 12.3 4.7 17 0 4.7-12.3 0-17z m-14.2 2.8c2.7-2.7 6.7-3.1 9.8-1.2l-11 11c-1.9-3.1-1.5-7.1 1.2-9.8z m11.4 11.4c-2.7 2.6-6.7 3-9.8 1.3l11-11c1.8 3 1.4 7-1.2 9.7z"></path></svg>

<?xml version="1.0" encoding="utf-8"?>
<!-- Generator: Adobe Illustrator 21.0.2, SVG Export Plug-In . SVG Version: 6.00 Build 0)  -->
<svg version="1.1" id="Layer_1" xmlns="http://www.w3.org/2000/svg" xmlns:xlink="http://www.w3.org/1999/xlink" x="0px" y="0px"
	 width="52px" height="52px" viewBox="0 0 52 52" enable-background="new 0 0 52 52" xml:space="preserve">
<path d="M64.7,19.1v0.4V19.1z"/>
<path fill="#FFFFFF" d="M22,37c0-2.7,0.9-5.8,2.3-8.2c1.7-3,3.6-4.2,5.1-6.4c2.5-3.7,3-9,1.4-13C29.2,5.3,25.4,2.9,21,3
	s-8,2.8-9.4,6.9c-1.6,4.5-0.9,9.9,2.7,13.3c1.5,1.4,2.9,3.6,2.1,5.7c-0.7,2-3.1,2.9-4.8,3.7c-3.9,1.7-8.6,4.1-9.4,8.7
	C1.4,45.1,4,49,8.1,49h17c0.8,0,1.3-1,0.8-1.6C23.4,44.5,22,40.8,22,37z"/>
<path fill="#FFFFFF" d="M46.5,28.5c-4.7-4.7-12.3-4.7-17,0s-4.7,12.3,0,17s12.3,4.7,17,0S51.2,33.2,46.5,28.5z M32.3,31.3
	c2.7-2.7,6.7-3.1,9.8-1.2l-11,11C29.2,38,29.6,34,32.3,31.3z M43.7,42.7C41,45.3,37,45.7,33.9,44l11-11C46.7,36,46.3,40,43.7,42.7z"
	/>
</svg>
